X: 1
T: Jackson's Morning Brush
M: 6/8
L: 1/8
R: jig
K: Dmaj
|:D|DFE EFE|DFA AFA|BGB def|gfg e2D|
DFE EFD|DFA AFA|BGB def|edc d2:|
|:a|fed faf|ede fdB|AFA def|gfg e2a|
fed faf|ede fdB|AFA def|edc d2:|
|:a|fdf ece|dBd AFE|DFA def|gfg e2a|
fdf ece|dBd AFE|DFA def|edc d2:|
